src/assets/img/shifter_logo.svg

<svg height="15" viewBox="0 0 62 15" width="62" xmlns="http://www.w3.org/2000/svg"><g fill="#b92229"><path d="m4.12089716 3.23144796c.27516655-.2224532.61899083-.34240614.97273523-.33936651.34751005-.00023102.6905424.07844096 1.00326039.2300905.32347631.15583791.61053452.37807945.84249453.65226244l1.66463895-2.35723982c-.4346176-.45280628-.9613504-.80694405-1.54457331-1.03846154-.61547775-.25248869-1.31077315-.37873303-2.08588621-.37873303-.52878168.00126603-1.05377498.0893128-1.55407002.26063348-.51551108.17434203-.99235884.44701848-1.40415755.80294118-.43847541.38479972-.78759918.86083966-1.02293217 1.39479638-.26093362.56877828-.39140043 1.24751131-.39140043 2.0361991 0 .58823529.0734865 1.09660633.22045951 1.52511312.13550065.40782352.34220146.78837507.61050329 1.1239819.25750305.31820525.56168096.59555779.90218818.82262443.34940413.23236672.71455409.4401089 1.09280087.62171946.61502553.30769231 1.08307805.59864253 1.40415755.87285068.32107951.27420814.48161926.64547507.48161926 1.11380087 0 .4547512-.13363239.8092761-.40089716 1.0635747-.26384873.2529629-.61759613.3902452-.98291028.381448-.42386006-.0026921-.84149763-.1022872-1.22100656-.2911765-.39784947-.1914244-.75793139-.4530788-1.06295405-.7723982l-1.64496718 2.4081448c.42780452.4285068.99308534.8031674 1.69584245 1.1239819.73465487.3280478 1.53176984.4924735 2.33619256.4819004.56807994.0005243 1.13188516-.0982452 1.66599562-.2918552.52867625-.1882821 1.01339853-.4825186 1.42450766-.8647058.42614332-.4061765.7593741-.8998313.97680525-1.4470589.24239242-.5828054.36358863-1.2561086.36358863-2.0199095 0-.61628956-.09745442-1.14909499-.29236324-1.59841625-.17925729-.42317429-.42827961-.81321583-.73667396-1.15384616-.2878927-.31488085-.61744909-.58891033-.9795186-.81447964-.35680525-.22126696-.69597374-.41221719-1.01750547-.57285068-.57477754-.29457013-1.00936543-.56606334-1.30376368-.81447963s-.4420496-.59366516-.44295405-1.03574661c0-.52217195.14358133-.89728507.43074399-1.12533937z"/><path d="m16.3241794 5.75904977h-3.3089278v-5.37760181h-3.18818377v14.20656104h3.18818377v-5.93959271h3.3089278v5.93959271h3.1888622v-14.20656104h-3.1888622z"/><path d="m21.478184.381448h3.228884v14.20724h-3.228884z"/><path d="m26.3513567 3.27081448h3.6901531v2.90972851h-3.3896498v2.74886877h3.3692997v5.65859724h3.2492342v-14.20656104h-6.9190372z"/><path d="m34.6135011 3.11063348h2.6075273v11.47737552h3.148162v-11.47737552h2.6075273v-2.72918552h-8.3632166z"/><path d="m47.2882276 8.64841629h3.4893654v-2.64841629h-3.4893654v-2.78959276h3.7898687v-2.82895928h-6.8586652v14.20656104h7.0994748v-2.8893665h-4.0306783z"/><path d="m59.52814 8.24728507c.2530984-.09534792.4892326-.23078612.6993655-.40113122.2544267-.20270306.473949-.44574012.6498468-.71945702.2085848-.32912801.3668044-.68761767.4694092-1.06357466.1252359-.4585205.1852935-.93240727.1784026-1.40769231 0-1.41764705-.3800948-2.48461538-1.1402845-3.20090497-.7601896-.7162896-1.8272137-1.0739819-3.2010722-1.07307693h-4.5448577v14.20656104h3.0884682v-5.65859724h.9394968l1.8993435 5.65859724h3.3787965zm-1.6612472-2.01651584c-.331912.28449812-.7561931.43799462-1.1931948.43167421h-.9428884v-3.59253394h1.0025821c.1926235-.00006519.3845756.02271822.5718381.06787331.1956333.04821755.377436.14114672.5311378.27149321.1708694.14809864.3048825.33401377.3914005.54298642.1003938.22624435.1505908.52036199.1505908.88235294 0 .64298643-.1704887 1.10837105-.5114661 1.39615385z"/></g></svg>

<?xml version="1.0" encoding="UTF-8"?>
<svg width="62px" height="15px" viewBox="0 0 62 15" version="1.1" xmlns="http://www.w3.org/2000/svg" xmlns:xlink="http://www.w3.org/1999/xlink">
    <!-- Generator: Sketch 47.1 (45422) - http://www.bohemiancoding.com/sketch -->
    <title>shifter</title>
    <desc>Created with Sketch.</desc>
    <defs></defs>
    <g id="desktop" stroke="none" stroke-width="1" fill="none" fill-rule="evenodd">
        <g id="home" transform="translate(-175.000000, -2430.000000)" fill-rule="nonzero" fill="#B92229">
            <g id="Group-40" transform="translate(175.000000, 1808.000000)">
                <g id="Group-35" transform="translate(0.000000, 452.000000)">
                    <g id="shifter" transform="translate(0.000000, 170.000000)">
                        <path d="M4.12089716,3.23144796 C4.39606371,3.00899476 4.73988799,2.88904182 5.09363239,2.89208145 C5.44114244,2.89185043 5.78417479,2.97052241 6.09689278,3.12217195 C6.42036909,3.27800986 6.7074273,3.5002514 6.93938731,3.77443439 L8.60402626,1.41719457 C8.16940866,0.964388291 7.64267586,0.610250519 7.05945295,0.378733032 C6.4439752,0.126244344 5.7486798,0 4.97356674,0 C4.44478506,0.0012660321 3.91979176,0.0893127952 3.41949672,0.260633484 C2.90398564,0.43497551 2.42713788,0.707651962 2.01533917,1.06357466 C1.57686376,1.44837438 1.22773999,1.92441432 0.992407002,2.45837104 C0.731473377,3.02714932 0.601006565,3.70588235 0.601006565,4.49457014 C0.601006565,5.08280543 0.674493071,5.59117647 0.821466083,6.01968326 C0.956966726,6.42750678 1.16366754,6.80805833 1.43196937,7.14366516 C1.68947242,7.46187041 1.99365033,7.73922295 2.33415755,7.96628959 C2.68356168,8.19865631 3.04871164,8.40639849 3.42695842,8.58800905 C4.04198395,8.89570136 4.51003647,9.18665158 4.83111597,9.46085973 C5.15219548,9.73506787 5.31273523,10.1063348 5.31273523,10.5746606 C5.31273523,11.0294118 5.17910284,11.3839367 4.91183807,11.6382353 C4.64798934,11.8911982 4.29424194,12.0284805 3.92892779,12.0196833 C3.50506773,12.0169912 3.08743016,11.9173961 2.70792123,11.7285068 C2.31007176,11.5370824 1.94998984,11.275428 1.64496718,10.9561086 L0,13.3642534 C0.427804522,13.7927602 0.993085339,14.1674208 1.69584245,14.4882353 C2.43049732,14.8162831 3.22761229,14.9807088 4.03203501,14.9701357 C4.60011495,14.97066 5.16392017,14.8718905 5.69803063,14.6782805 C6.22670688,14.4899984 6.71142916,14.1957619 7.12253829,13.8135747 C7.54868161,13.4073982 7.88191239,12.9137434 8.09934354,12.3665158 C8.34173596,11.7837104 8.46293217,11.1104072 8.46293217,10.3466063 C8.46293217,9.73031674 8.36547775,9.19751131 8.17056893,8.74819005 C7.99131164,8.32501576 7.74228932,7.93497422 7.43389497,7.59434389 C7.14600227,7.27946304 6.81644588,7.00543356 6.45437637,6.77986425 C6.09757112,6.55859729 5.75840263,6.36764706 5.4368709,6.20701357 C4.86209336,5.91244344 4.42750547,5.64095023 4.13310722,5.39253394 C3.83870897,5.14411765 3.69105762,4.79886878 3.69015317,4.35678733 C3.69015317,3.83461538 3.8337345,3.45950226 4.12089716,3.23144796 Z" id="Shape"></path>
                        <polygon id="Shape" points="16.3241794 5.75904977 13.0152516 5.75904977 13.0152516 0.381447964 9.82706783 0.381447964 9.82706783 14.588009 13.0152516 14.588009 13.0152516 8.64841629 16.3241794 8.64841629 16.3241794 14.588009 19.5130416 14.588009 19.5130416 0.381447964 16.3241794 0.381447964"></polygon>
                        <rect id="Rectangle-path" x="21.4781838" y="0.381447964" width="3.22888403" height="14.2072398"></rect>
                        <polygon id="Shape" points="26.3513567 3.27081448 30.0415098 3.27081448 30.0415098 6.18054299 26.65186 6.18054299 26.65186 8.92941176 30.0211597 8.92941176 30.0211597 14.588009 33.2703939 14.588009 33.2703939 0.381447964 26.3513567 0.381447964"></polygon>
                        <polygon id="Shape" points="34.6135011 3.11063348 37.2210284 3.11063348 37.2210284 14.588009 40.3691904 14.588009 40.3691904 3.11063348 42.9767177 3.11063348 42.9767177 0.381447964 34.6135011 0.381447964"></polygon>
                        <polygon id="Shape" points="47.2882276 8.64841629 50.777593 8.64841629 50.777593 6 47.2882276 6 47.2882276 3.21040724 51.0780963 3.21040724 51.0780963 0.381447964 44.2194311 0.381447964 44.2194311 14.588009 51.3189059 14.588009 51.3189059 11.6986425 47.2882276 11.6986425"></polygon>
                        <path d="M59.52814,8.24728507 C59.7812384,8.15193715 60.0173726,8.01649895 60.2275055,7.84615385 C60.4819322,7.64345079 60.7014545,7.40041373 60.8773523,7.12669683 C61.0859371,6.79756882 61.2441567,6.43907916 61.3467615,6.06312217 C61.4719974,5.60460167 61.532055,5.1307149 61.5251641,4.65542986 C61.5251641,3.23778281 61.1450693,2.17081448 60.3848796,1.45452489 C59.62469,0.738235294 58.5576659,0.380542986 57.1838074,0.381447964 L52.6389497,0.381447964 L52.6389497,14.588009 L55.7274179,14.588009 L55.7274179,8.92941176 L56.6669147,8.92941176 L58.5662582,14.588009 L61.9450547,14.588009 L59.52814,8.24728507 Z M57.8668928,6.23076923 C57.5349808,6.51526735 57.1106997,6.66876385 56.673698,6.66244344 L55.7308096,6.66244344 L55.7308096,3.0699095 L56.7333917,3.0699095 C56.9260152,3.06984431 57.1179673,3.09262772 57.3052298,3.13778281 C57.5008631,3.18600036 57.6826658,3.27892953 57.8363676,3.40927602 C58.007237,3.55737466 58.1412501,3.74328979 58.2277681,3.95226244 C58.3281619,4.17850679 58.3783589,4.47262443 58.3783589,4.83461538 C58.3783589,5.47760181 58.2078702,5.94298643 57.8668928,6.23076923 Z" id="Shape"></path>
                    </g>
                </g>
            </g>
        </g>
    </g>
</svg>
